X:0518
T:Earl of Loudoun's Strathspey.
G:Strathspey
M:C
L:1/8
Q:1/4=120
I: :: ::
Z:Jack Campin * www.campin.me.uk * 2009
K:G
g|d<Gd>B        G>Bd>B   |ETee>d         eAA<g    |\
  d<Gd>B        Gg/a/ b>a|g>e d/e/d/c/   BGG     :|
d|g>a ({ga}b>)a g(ee>)g  |d>eg>a    ({ga}b)aa>b   |\
  g>a.b.b       g<db>a   |g>e d/e/d/c/   B(G G)>d |
  g>a ({ga}b).a g(ee)>g  |d>eg>a     {ga}b>a ag/a/|\
  b>ga>e        g/e/d b>a|g>e d/e/d/c/   B(G G)  :|
<end>
<start>
